www/assets/icons/spatial_audio_off.svg

<svg xmlns="http://www.w3.org/2000/svg" width="24" height="24" viewBox="0 0 24 24" fill='currentColor'><path d="M9.5 14a4 4 0 1 0 0-8 4 4 0 0 0 0 8m6.39 2.56C14.21 15.7 12.03 15 9.5 15s-4.71.7-6.39 1.56a2.97 2.97 0 0 0-1.61 2.66V22h16v-2.78c0-1.12-.61-2.15-1.61-2.66M19.86 2l-1.41 1.41a7.007 7.007 0 0 1 0 9.9l1.41 1.41a8.98 8.98 0 0 0 0-12.72"/><path d="M17.04 11.9a5.003 5.003 0 0 0 0-7.07l-1.41 1.41a3 3 0 0 1 0 4.24z"/></svg>

<svg width="24" height="24" viewBox="0 0 24 24" xmlns="http://www.w3.org/2000/svg" fill='currentColor'><path d="M9.5 14C11.7091 14 13.5 12.2091 13.5 10C13.5 7.79086 11.7091 6 9.5 6C7.29086 6 5.5 7.79086 5.5 10C5.5 12.2091 7.29086 14 9.5 14Z"/><path d="M15.89 16.56C14.21 15.7 12.03 15 9.5 15C6.97 15 4.79 15.7 3.11 16.56C2.11 17.07 1.5 18.1 1.5 19.22V22H17.5V19.22C17.5 18.1 16.89 17.07 15.89 16.56Z"/><path d="M19.86 2L18.45 3.41C21.18 6.14 21.18 10.58 18.45 13.31L19.86 14.72C23.38 11.21 23.38 5.51 19.86 2Z"/><path d="M17.04 11.9C18.99 9.95 18.99 6.78 17.04 4.83L15.63 6.24C16.8 7.41 16.8 9.31 15.63 10.48L17.04 11.9Z"/></svg>
